!!!OTL: For He's a Jolly Good Fellow
!!!COM: unknown
!!!ODT: unknown
!!!YOR: The Folksong Fake Book
!!!YOY: 2000
!!!AST: Occasional
!!!YEC: Brian Luke, 2001
**kern	**harm
*k[f#]	*k[f#]
*M6/8	*M6/8
*G:	*G:
*>A	*>A
8g	.
=1	=1
4b	I
8b	.
8b	.
8a	.
8b	.
=2	=2
4.cc	IV
4b	I
8b	.
=3	=3
4a	V7
8a	.
8a	.
8g	.
8a	.
=4	=4
4.b	I
4g	.
16g	.
16a	.
=5	=5
4b	.
8b	.
8b	V7/IV
8a	.
8b	.
=6	=6
4.cc	IV
4ee	.
8ee	.
=7	=7
8dd	I
8dd	.
8dd	.
4cc	V7
8a	.
=8	=8
[4.g	I;
4g]	.
*>B	*>B
8b	.
=9	=9
8dd	I
8dd	.
8dd	.
4ee	IV
8ee	.
=10	=10
[4.dd	I
4dd]	.
8b	.
=11	=11
8dd	.
8dd	.
8dd	.
4ee	IV
8ee	.
=12	=12
[4.dd	I
4dd]	.
*>A	*>A
8g	.
=13	=13
4b	I
8b	.
8b	.
8a	.
8b	.
=14	=14
4.cc	IV
4b	I
8b	.
=15	=15
4a	V7
8a	.
8a	.
8g	.
8a	.
=16	=16
4.b	I
4g	.
16g	.
16a	.
=17	=17
4b	.
8b	.
8b	V7/IV
8a	.
8b	.
=18	=18
4.cc	IV
4ee	.
8ee	.
=19	=19
8dd	I
8dd	.
8dd	.
4cc	V7
8a	.
=20	=20
[4.g	I;
4g]	.
*-	*-
